X: 35
T:Dowds #9
M:4/4
R:Reel
C:John Dowd?
Q:200
K:D
|DFAF GFEF  |D2 FA dABA|F2 AF GFGB|AGFD EB,CD|
 DF F2 GFEF |DEFA dABG    |F2 AF GFGB   |AGFD ED D2:|
:fd d2 g2 ag|f2 df edBA   |fefa gfec    |dcde fddA|
 dfaf gfeg  |fAdf edBA    |GABG FAdB    |AGFD ED D2:|

